X: 14467
T: Gan Aim
R: jig
M: 6/8
K: Dmajor
|:e|{^g}aAA cAA|eAA cAA|{^g}aAA cAA|faf de^g|
aAA cAA|eAA cAA|BAB dcB|1 c2 A A2:|2 c2 A A2 A||
|:{c}dAA BAA|[FA] AA [GA] AA|[FA] AA [DA] AA|[FA] AA [GA] AA|
{c}dAA BAA|[FA] AA [GA] AA|[FA] AA [DA] AA|[FA] AA [D3A3]:|

